icons/circle/48/rednotebook.svg

<svg xmlns="http://www.w3.org/2000/svg" viewBox="0 0 48 48">
 <defs>
  <linearGradient id="linearGradient3764" x1="1" x2="47" gradientUnits="userSpaceOnUse" gradientTransform="matrix(0,-1,1,0,-1.5e-6,47.999998)">
   <stop style="stop-color:#e4e4e4;stop-opacity:1"/>
   <stop offset="1" style="stop-color:#eee;stop-opacity:1"/>
  </linearGradient>
 </defs>
 <g>
  <path d="m 36.31 5 c 5.859 4.062 9.688 10.831 9.688 18.5 c 0 12.426 -10.07 22.5 -22.5 22.5 c -7.669 0 -14.438 -3.828 -18.5 -9.688 c 1.037 1.822 2.306 3.499 3.781 4.969 c 4.085 3.712 9.514 5.969 15.469 5.969 c 12.703 0 23 -10.298 23 -23 c 0 -5.954 -2.256 -11.384 -5.969 -15.469 c -1.469 -1.475 -3.147 -2.744 -4.969 -3.781 z m 4.969 3.781 c 3.854 4.113 6.219 9.637 6.219 15.719 c 0 12.703 -10.297 23 -23 23 c -6.081 0 -11.606 -2.364 -15.719 -6.219 c 4.16 4.144 9.883 6.719 16.219 6.719 c 12.703 0 23 -10.298 23 -23 c 0 -6.335 -2.575 -12.06 -6.719 -16.219 z" style="opacity:0.05"/>
  <path d="m 41.28 8.781 c 3.712 4.085 5.969 9.514 5.969 15.469 c 0 12.703 -10.297 23 -23 23 c -5.954 0 -11.384 -2.256 -15.469 -5.969 c 4.113 3.854 9.637 6.219 15.719 6.219 c 12.703 0 23 -10.298 23 -23 c 0 -6.081 -2.364 -11.606 -6.219 -15.719 z" style="opacity:0.1"/>
  <path d="m 31.25 2.375 c 8.615 3.154 14.75 11.417 14.75 21.13 c 0 12.426 -10.07 22.5 -22.5 22.5 c -9.708 0 -17.971 -6.135 -21.12 -14.75 a 23 23 0 0 0 44.875 -7 a 23 23 0 0 0 -16 -21.875 z" style="opacity:0.2"/>
 </g>
 <g>
  <path d="m 24 1 c 12.703 0 23 10.297 23 23 c 0 12.703 -10.297 23 -23 23 -12.703 0 -23 -10.297 -23 -23 0 -12.703 10.297 -23 23 -23 z" style="fill:url(#linearGradient3764);fill-opacity:1"/>
 </g>
 <g>
  <g>
   <g transform="translate(1,1)">
    <g style="opacity:0.1">
     <!-- color: #eeeeee -->
     <g>
      <path d="m 12 12 c 0 8.08 0 16.898 0 24 l 24 0 c 0 -24 0 -14.242 0 -24 m -24 0" style="fill:#000;fill-opacity:1;stroke:none;fill-rule:evenodd"/>
     </g>
    </g>
   </g>
  </g>
 </g>
 <g>
  <g>
   <!-- color: #eeeeee -->
   <g>
    <path d="m 12 12 c 0 8.08 0 16.898 0 24 l 24 0 c 0 -24 0 -14.242 0 -24 m -24 0" style="fill:#cd4c4c;fill-opacity:1;stroke:none;fill-rule:evenodd"/>
    <path d="m 13 31 c 0 1.348 0 2.816 0 4 l 22 0 c 0 -4 0 -2.375 0 -4 m -22 0" style="fill:#f9f9f9;fill-opacity:1;stroke:none;fill-rule:evenodd"/>
    <path d="m 12 12 c 0 6.06 0 12.672 0 18 l 24 0 c 0 -18 0 -10.699 0 -18 m -24 0" style="fill:#c82626;fill-opacity:1;stroke:none;fill-rule:evenodd"/>
    <path d="m 13 31.996 c 0 0.336 0 0.707 0 1 l 22 0 c 0 -1 0 -0.598 0 -1 m -22 0" style="fill:#e5e5e5;fill-opacity:1;stroke:none;fill-rule:evenodd"/>
    <path d="m 13 34 c 0 0.34 0 0.707 0 1 l 22 0 c 0 -1 0 -0.594 0 -1 m -22 0" style="fill:#e5e5e5;fill-opacity:1;stroke:none;fill-rule:evenodd"/>
    <path d="m 17.84,23.23 11.605,-7.418 2.152,3.371 -11.602,7.418 M 17.839,23.23" style="fill:#f93;fill-opacity:1;stroke:none;fill-rule:nonzero"/>
    <path d="m 28.82 16.203 2.156 3.371 2.055 -1.316 c 0 0 0.301 -0.578 -0.602 -1.988 -0.871 -1.359 -1.605 -1.348 -1.605 -1.348 l -2 1.277 m 0 0.004" style="fill:#ff2d5b;fill-opacity:1;stroke:none;fill-rule:nonzero"/>
    <path d="m 17.859,23.21 -2.293,3.844 4.445,-0.473 M 17.859,23.21" style="fill:#ffc13d;fill-opacity:1;stroke:none;fill-rule:nonzero"/>
    <path d="m 16.715,25.11 -1.137,1.938 2.23,-0.223 M 16.714,25.11" style="fill:#2d2d2d;fill-opacity:1;stroke:none;fill-rule:nonzero"/>
   </g>
  </g>
 </g>
 <g>
  <path d="m 40.03 7.531 c 3.712 4.084 5.969 9.514 5.969 15.469 0 12.703 -10.297 23 -23 23 c -5.954 0 -11.384 -2.256 -15.469 -5.969 4.178 4.291 10.01 6.969 16.469 6.969 c 12.703 0 23 -10.298 23 -23 0 -6.462 -2.677 -12.291 -6.969 -16.469 z" style="opacity:0.1"/>
 </g>
</svg>

<svg xmlns="http://www.w3.org/2000/svg" viewBox="0 0 48 48">
  <defs>
    <linearGradient id="a" x1="1" x2="47" gradientUnits="userSpaceOnUse" gradientTransform="rotate(-90 24 24)">
      <stop stop-color="#e4e4e4"/>
      <stop offset="1" stop-color="#eee"/>
    </linearGradient>
  </defs>
  <path d="M36.31 5c5.859 4.062 9.688 10.831 9.688 18.5 0 12.426-10.07 22.5-22.5 22.5-7.669 0-14.438-3.828-18.5-9.688a23.24 23.24 0 0 0 3.781 4.969 22.923 22.923 0 0 0 15.469 5.969c12.703 0 23-10.298 23-23a22.92 22.92 0 0 0-5.969-15.469A23.216 23.216 0 0 0 36.31 5zm4.969 3.781A22.911 22.911 0 0 1 47.498 24.5c0 12.703-10.297 23-23 23a22.909 22.909 0 0 1-15.719-6.219C12.939 45.425 18.662 48 24.998 48c12.703 0 23-10.298 23-23 0-6.335-2.575-12.06-6.719-16.219z" opacity=".05"/>
  <path d="M41.28 8.781a22.923 22.923 0 0 1 5.969 15.469c0 12.703-10.297 23-23 23A22.92 22.92 0 0 1 8.78 41.281 22.911 22.911 0 0 0 24.499 47.5c12.703 0 23-10.298 23-23A22.909 22.909 0 0 0 41.28 8.781z" opacity=".1"/>
  <path d="M31.25 2.375C39.865 5.529 46 13.792 46 23.505c0 12.426-10.07 22.5-22.5 22.5-9.708 0-17.971-6.135-21.12-14.75a23 23 0 0 0 44.875-7 23 23 0 0 0-16-21.875z" opacity=".2"/>
  <path d="M24 1c12.703 0 23 10.297 23 23S36.703 47 24 47 1 36.703 1 24 11.297 1 24 1z" fill="url(#a)"/>
  <path d="M13 13v24h24V13m-24 0" fill-rule="evenodd" opacity=".1"/>
  <g>
    <path d="M12 12v24h24V12m-24 0" fill="#cd4c4c" fill-rule="evenodd"/>
    <path d="M13 31v4h22v-4m-22 0" fill="#f9f9f9" fill-rule="evenodd"/>
    <path d="M12 12v18h24V12m-24 0" fill="#c82626" fill-rule="evenodd"/>
    <path d="M13 31.996v1h22v-1m-22 0M13 34v1h22v-1m-22 0" fill="#e5e5e5" fill-rule="evenodd"/>
    <path d="M17.84 23.23l11.605-7.418 2.152 3.371-11.602 7.418m-2.156-3.371" fill="#f93"/>
    <path d="M28.82 16.203l2.156 3.371 2.055-1.316s.301-.578-.602-1.988c-.871-1.359-1.605-1.348-1.605-1.348l-2 1.277m0 .004" fill="#ff2d5b"/>
    <path d="M17.859 23.21l-2.293 3.844 4.445-.473m-2.152-3.371" fill="#ffc13d"/>
    <path d="M16.715 25.11l-1.137 1.938 2.23-.223m-1.094-1.715" fill="#2d2d2d"/>
  </g>
  <g>
    <path d="M40.03 7.531A22.922 22.922 0 0 1 45.999 23c0 12.703-10.297 23-23 23A22.92 22.92 0 0 1 7.53 40.031C11.708 44.322 17.54 47 23.999 47c12.703 0 23-10.298 23-23 0-6.462-2.677-12.291-6.969-16.469z" opacity=".1"/>
  </g>
</svg>
